X: 37103
T: Silver, The
R: reel
M: 4/4
K: Bminor
|:f2ec ~B3f|fece faa2|faec ~B3d|ceBB ABce|
faec ~B3f|fece faa2|gf (3efg fede|edcd B2de:|
|:~f3b bafa|a2bc' bafe|~f3b bafg|gfed e2de|
~f3b bafa|a2bc' bafa|gf (3efg fede|edcd Bcde:|

